projects/ccf-eui/src/assets/icons/organ-icons/organ-icon-neurons.svg

<svg width="64" height="64" viewBox="0 0 64 64" fill="currentColor" xmlns="http://www.w3.org/2000/svg">
<path d="M53.312 59.2L51.7546 61.8666" stroke="currentColor" stroke-width="0.75" stroke-miterlimit="10" stroke-linecap="round"/>
<path d="M27.8613 25.6C41.088 29.5467 40.1707 32 42.7947 34.816C46.2293 38.5067 46.016 40.8747 48.256 46.6773C49.408 49.664 49.8987 60.3307 57.664 61.0133" stroke="currentColor" stroke-width="0.75" stroke-miterlimit="10" stroke-linecap="round"/>
<path d="M57.6 55.744L51.7546 57.2373" stroke="currentColor" stroke-width="0.75" stroke-miterlimit="10" stroke-linecap="round"/>
<path d="M36.1174 28.7147C42.6668 33.1307 44.8001 33.4933 50.7734 55.744" stroke="currentColor" stroke-width="2" stroke-linecap="round" stroke-linejoin="round" stroke-dasharray="2 2 2 2 2 2"/>
<path d="M13.1626 31.2107C11.6601 31.9662 10.4409 33.1855 9.68531 34.688C9.10931 36.1813 8.83197 37.824 5.82397 38.5067" stroke="currentColor" stroke-width="0.75" stroke-miterlimit="10" stroke-linecap="round"/>
<path d="M9.74927 36.3307L11.9253 37.7173" stroke="currentColor" stroke-width="0.75" stroke-miterlimit="10" stroke-linecap="round"/>
<path d="M11.9254 20.9493C8.6401 21.5467 6.40009 18.3253 5.01343 16.3627" stroke="currentColor" stroke-width="0.75" stroke-miterlimit="10" stroke-linecap="round"/>
<path d="M7.936 20.6507L4.58667 21.952" stroke="currentColor" stroke-width="0.75" stroke-miterlimit="10" stroke-linecap="round"/>
<path d="M22.144 15.296C22.9747 13.3517 23.4238 11.2658 23.4667 9.15199C23.296 6.48532 23.04 3.54132 23.04 3.54132" stroke="currentColor" stroke-width="0.75" stroke-miterlimit="10" stroke-linecap="round"/>
<path d="M23.616 10.112L27.8613 6.22931" stroke="currentColor" stroke-width="0.75" stroke-miterlimit="10" stroke-linecap="round"/>
<path d="M23.424 7.55197L19.52 5.82397" stroke="currentColor" stroke-width="0.75" stroke-miterlimit="10" stroke-linecap="round"/>
<path d="M29.1626 18.688C31.5093 17.728 32.5119 17.5573 35.1999 16.3627C37.8879 15.168 40.2986 14.2293 40.2986 14.2293" stroke="currentColor" stroke-width="0.75" stroke-miterlimit="10" stroke-linecap="round"/>
<path d="M36.8426 15.296L36.5439 11.8186" stroke="currentColor" stroke-width="0.75" stroke-miterlimit="10" stroke-linecap="round"/>
<path d="M23.616 33.4933C23.616 33.4933 27.7333 37.0347 27.7333 39.2747C27.9191 40.8524 28.573 42.3384 29.6106 43.5413" stroke="currentColor" stroke-width="0.75" stroke-miterlimit="10" stroke-linecap="round"/>
<path d="M27.4348 40.512L22.2935 42.688" stroke="currentColor" stroke-width="0.75" stroke-miterlimit="10" stroke-linecap="round"/>
<path fill-rule="evenodd" clip-rule="evenodd" d="M25.7494 35.648C22.3574 32.4053 15.6161 31.6587 11.1574 32.6827C11.9544 30.6738 12.2142 28.492 11.9112 26.3522C11.6082 24.2125 10.7528 22.1885 9.42944 20.48C15.428 19.7817 18.7212 16.9942 21.3528 14.7668C21.8565 14.3405 22.3359 13.9347 22.8054 13.568C24.1704 17.8644 26.1555 17.7628 28.6871 17.6332C29.6375 17.5846 30.6649 17.532 31.7654 17.7067C30.5281 18.9653 27.1574 22.4 29.6321 26.0693C27.8614 26.7947 27.0294 27.4773 26.4961 28.928C25.6494 31.0606 25.3915 33.3816 25.7494 35.648ZM21.6485 22.9949C21.2587 22.2465 20.6186 21.6585 19.8399 21.3333C19.0127 21.1484 18.1466 21.2662 17.3989 21.6655C16.6513 22.0648 16.0716 22.719 15.7652 23.5093C15.2532 25.2373 15.7866 27.008 17.0666 27.3707C18.3466 27.7333 21.3332 27.2853 21.9732 25.4293C22.1532 24.6049 22.0383 23.7434 21.6485 22.9949Z" />
<path d="M25.1093 41.4933C25.4416 42.3877 25.5035 43.3602 25.2873 44.2895C25.0711 45.2189 24.5863 46.0641 23.8933 46.72" stroke="currentColor" stroke-width="0.75" stroke-miterlimit="10" stroke-linecap="round"/>
</svg>

<svg xmlns="http://www.w3.org/2000/svg" width="64" height="64" fill="currentColor" viewBox="0 0 64 64"><path stroke="currentColor" stroke-linecap="round" stroke-miterlimit="10" stroke-width=".75" d="m53.312 59.2-1.557 2.667M27.861 25.6c13.227 3.947 12.31 6.4 14.934 9.216 3.434 3.69 3.221 6.059 5.461 11.861 1.152 2.987 1.643 13.654 9.408 14.336M57.6 55.744l-5.845 1.493"/><path stroke="currentColor" stroke-dasharray="2 2 2 2 2 2" stroke-linecap="round" stroke-linejoin="round" stroke-width="2" d="M36.117 28.715c6.55 4.416 8.683 4.778 14.656 27.029"/><path stroke="currentColor" stroke-linecap="round" stroke-miterlimit="10" stroke-width=".75" d="M13.163 31.21a7.83 7.83 0 0 0-3.478 3.478c-.576 1.493-.853 3.136-3.861 3.819M9.75 36.33l2.175 1.387M11.925 20.95c-3.285.597-5.525-2.625-6.912-4.587M7.936 20.65l-3.35 1.302M22.144 15.296a16.5 16.5 0 0 0 1.323-6.144c-.171-2.667-.427-5.61-.427-5.61M23.616 10.112l4.245-3.883M23.424 7.552 19.52 5.824M29.163 18.688c2.346-.96 3.349-1.13 6.037-2.325s5.099-2.134 5.099-2.134M36.843 15.296l-.3-3.477M23.616 33.493s4.117 3.542 4.117 5.782a7.96 7.96 0 0 0 1.878 4.266M27.435 40.512l-5.141 2.176"/><path fill-rule="evenodd" d="M25.75 35.648c-3.393-3.243-10.134-3.99-14.593-2.965A12.44 12.44 0 0 0 9.43 20.48c5.999-.698 9.292-3.486 11.924-5.713.503-.426.983-.832 1.452-1.199 1.365 4.296 3.35 4.195 5.882 4.065.95-.048 1.978-.101 3.078.074-1.237 1.258-4.608 4.693-2.133 8.362-1.77.726-2.603 1.408-3.136 2.859a12.8 12.8 0 0 0-.747 6.72m-4.102-12.653a3.6 3.6 0 0 0-1.808-1.662 3.54 3.54 0 0 0-4.075 2.176c-.512 1.728.022 3.499 1.302 3.862 1.28.362 4.266-.086 4.906-1.942a3.6 3.6 0 0 0-.325-2.434" clip-rule="evenodd"/><path stroke="currentColor" stroke-linecap="round" stroke-miterlimit="10" stroke-width=".75" d="M25.11 41.493a4.86 4.86 0 0 1-1.217 5.227"/></svg>
